dist/images/icons/line-s-blue.svg

<svg width="219" height="217" viewBox="0 0 219 217" fill="none" xmlns="http://www.w3.org/2000/svg">
<path d="M0.405914 179.516C-0.000452276 183.534 2.88001 187.075 6.83961 187.424C10.7992 187.774 14.3385 184.801 14.7449 180.783L0.405914 179.516ZM51.1731 22.8186L45.5759 18.3062L51.1731 22.8186ZM97.9694 70.5423L91.2383 68.0378L97.9694 70.5423ZM69.7224 169.253L62.6947 167.744C62.6599 167.899 62.6301 168.056 62.6053 168.214L69.7224 169.253ZM191.038 86.1393C189.365 82.5064 185.08 80.9814 181.469 82.733L122.614 111.277C119.002 113.029 117.431 117.394 119.104 121.027C120.778 124.66 125.062 126.185 128.674 124.433L180.989 99.0603L205.226 151.683C206.9 155.316 211.184 156.841 214.796 155.089C218.407 153.338 219.979 148.973 218.305 145.34L191.038 86.1393ZM14.7449 180.783C16.6933 161.518 21.1956 130.545 28.3377 100.484C31.9079 85.4573 36.109 70.7809 40.9316 57.9667C45.789 45.0599 51.117 34.4799 56.7703 27.3311L45.5759 18.3062C38.5309 27.215 32.5539 39.4474 27.4732 52.9474C22.3576 66.5401 17.9874 81.8651 14.3265 97.2736C7.00652 128.084 2.40822 159.718 0.405914 179.516L14.7449 180.783ZM56.7703 27.3311C64.0001 18.1885 70.1703 15.2624 74.4944 14.9072C78.642 14.5665 82.84 16.4552 86.5999 21.0872C94.394 30.689 98.0743 49.8331 91.2383 68.0378L104.701 73.0468C113.115 50.6393 109.27 25.8495 97.7894 11.7065C91.9121 4.46611 83.5357 -0.470322 73.5499 0.349962C63.7407 1.15574 54.2187 7.37676 45.5759 18.3062L56.7703 27.3311ZM91.2383 68.0378C78.8519 101.024 67.0478 148.284 62.6947 167.744L76.7501 170.763C81.0615 151.49 92.6867 105.04 104.701 73.0468L91.2383 68.0378ZM62.6053 168.214C61.6095 174.552 61.0501 181.947 61.5341 188.922C62.0022 195.666 63.5124 203.113 67.5683 208.582C69.6978 211.454 72.5854 213.847 76.3364 215.127C80.0611 216.399 84.0947 216.389 88.2362 215.382C96.2463 213.435 105.529 207.554 116.441 197.642L106.911 186.835C96.5617 196.236 89.504 200.107 85.0784 201.183C83.002 201.688 81.794 201.507 81.1267 201.279C80.4856 201.06 79.8306 200.625 79.1401 199.694C77.5562 197.559 76.3175 193.502 75.913 187.674C75.5245 182.077 75.9691 175.833 76.8395 170.293L62.6053 168.214ZM116.441 197.642C159.965 158.106 184.345 110.943 191.265 91.7194L177.732 86.9023C171.537 104.11 148.427 149.122 106.911 186.835L116.441 197.642Z" fill="#BFDDFF"/>
</svg>

<svg xmlns="http://www.w3.org/2000/svg" width="219" height="217" fill="none"><path fill="#BFDDFF" d="M.406 179.516c-.406 4.018 2.474 7.559 6.434 7.908s7.499-2.623 7.905-6.641zM51.173 22.819l-5.597-4.513zM97.97 70.542l-6.73-2.504zm-28.247 98.711-7.027-1.509a7 7 0 0 0-.09.47zm121.316-83.114c-1.673-3.633-5.958-5.158-9.569-3.406l-58.855 28.544c-3.612 1.752-5.183 6.117-3.51 9.75s5.958 5.158 9.57 3.406l52.315-25.373 24.237 52.623c1.674 3.633 5.958 5.158 9.57 3.406 3.611-1.751 5.183-6.116 3.509-9.749zM14.745 180.783c1.948-19.265 6.45-50.238 13.593-80.299 3.57-15.027 7.771-29.703 12.594-42.517C45.789 45.06 51.117 34.48 56.77 27.33l-11.194-9.025c-7.045 8.909-13.022 21.141-18.103 34.641-5.115 13.593-9.486 28.918-13.146 44.327-7.32 30.81-11.919 62.444-13.921 82.242zM56.77 27.331C64 18.19 70.17 15.262 74.494 14.907c4.148-.34 8.346 1.548 12.106 6.18 7.794 9.602 11.474 28.746 4.638 46.95l13.463 5.01c8.414-22.408 4.569-47.197-6.912-61.34C91.912 4.466 83.536-.47 73.55.35c-9.808.806-19.33 7.027-27.973 17.956zm34.468 40.707c-12.386 32.986-24.19 80.246-28.543 99.706l14.055 3.019c4.311-19.273 15.937-65.723 27.951-97.716zM62.605 168.214c-.995 6.338-1.555 13.733-1.07 20.708.467 6.744 1.977 14.191 6.033 19.66 2.13 2.872 5.017 5.265 8.768 6.545 3.725 1.272 7.759 1.262 11.9.255 8.01-1.947 17.293-7.828 28.205-17.74l-9.53-10.807c-10.35 9.401-17.407 13.272-21.833 14.348-2.076.505-3.284.324-3.951.096-.641-.219-1.296-.654-1.987-1.585-1.584-2.135-2.823-6.192-3.227-12.02-.388-5.597.056-11.841.927-17.381zm53.836 29.428c43.524-39.536 67.904-86.699 74.824-105.923l-13.533-4.817c-6.195 17.208-29.305 62.22-70.821 99.933z"/></svg>
